X:1
T:Title
%%score { 1 | 2 }
L:1/8
Q:1/4=92
M:4/4
K:G
V:1 treble nm="Grand Piano"
V:2 bass 
V:1
 [B,G][B,G] [DB]>[CA] [B,G]2 [B,D]2 | [CE][EG] [EG]>[CE] [B,D]4 | GABc d2 B2 | BA[^CG][CB] [DA]4 | %4
w: W.~J.~Kirkpatrick * * * * *||||
 [B,G][B,G] [DB]>[CA] [B,G]2 [B,D]2 | [CE][EG] [EG]>[CE] [B,D]4 | GABc dd^cd | [GB]2 [FA]2 [DG]4 | %8
w: ||||
 [^DB]<[DB] [DB]>[DB] [DB]<[DB] [DF]2 | [FA]>G GF G4 | [FA]<[FA] [FA]>[FA] [=FB]<[FB] [^FA]>[FA] | %11
w: |||
 ^ccBc [Fd]4 | dd d>e d2 B2 | [DB]<[DB] [DB]>[Ec] [DB]2 [B,G]2 | %14
w: |||
[M:17/16] [EG]<[EG][EA][EB][Ec]<[Dc][DB]3/2[DB][Q:1/4=91][Q:1/4=89][Q:1/4=88][Q:1/4=87][Q:1/4=85][Q:1/4=84][Q:1/4=83][Q:1/4=81][Q:1/4=80] | %15
w: |
[M:4/4] B<A EF [B,G]4[Q:1/4=78][Q:1/4=77][Q:1/4=76][Q:1/4=74][Q:1/4=73][Q:1/4=72][Q:1/4=70] |] %16
w: |
V:2
 [G,,D,][G,,D,] [G,,D,]>[G,,D,] [G,,D,]2 [G,,G,]2 | [C,G,][C,C] [C,C]>[C,G,] [G,,G,]4 | %2
 [G,B,D][G,CD][G,DG][G,A,G] [G,B,G]2[K:bass] [G,D]2 | [E,G,^C][E,G,C][A,,G,][A,,G,] [D,F,]4 | %4
 [G,,D,][G,,D,] [G,,D,]>[G,,D,] [G,,D,]2 [G,,G,]2 | [C,G,][C,C] [C,C]>[C,G,] [G,,G,]4 | %6
 [G,B,D][G,CD][G,DG][G,A,G] [G,B,G][G,B,G][G,_B,G][G,=B,G] | [D,D]2 [D,C]2 [G,B,]4 | %8
 [B,,F,]<[B,,F,] [B,,F,]>[B,,F,] [B,,F,]<[B,,F,] [B,,B,]2 | %9
 [E,B,]>[E,B,E] [E,B,E][E,B,^D] [E,B,E]4 | [D,D]<[D,D] [D,D]>[D,D] [D,D]<[D,D] [D,D]>[D,D] | %11
 [A,EG][A,EG][A,CG][A,G] [D,A,]4 | [G,B,G][G,B,G] [G,B,G]>[G,CG] [G,B,G]2 [G,DG]2 | %13
 [G,,G,]<[G,,G,] [G,,G,]>[G,,G,] [G,,G,]2 [G,,G,]2 | %14
[M:17/16] [C,G,]<[C,G,][C,E,][B,,^G,][A,,A,]<[A,,F,][G,,=G,]3/2[G,,G,] | %15
[M:4/4] [D,G,D]<[D,F,C] [D,A,C][D,A,C] [G,,G,]4 |] %16

